dist/img/sprites/blog.svg

<svg width="75" height="75" viewBox="0 0 75 75" fill="none" xmlns="http://www.w3.org/2000/svg">
<path d="M62.8146 0.00451117C56.4352 0.00225558 49.8394 0 42.9617 0C33.3216 0 23.1268 0.00225558 12.1811 0.00902233C11.6015 0.00902233 10.7333 0.027067 9.91704 0.178191C3.90298 1.29245 0.0153804 6.01339 0.00861547 12.205C-0.000404494 26.0588 -0.0116794 44.329 0.0289104 62.7729C0.0311654 64.0653 0.207055 65.3578 0.536283 66.5081C2.00654 71.6509 6.53907 74.9801 12.0818 74.9914C18.017 75.0027 24.0513 75.0004 29.8872 74.9982C32.4196 74.9982 34.9497 74.9959 37.482 74.9959H45.0137C50.9421 74.9982 56.8704 75.0004 62.7966 74.9959C69.7058 74.9869 74.9352 69.8487 74.9577 63.0458C75.0141 46.0861 75.0141 28.903 74.9577 11.9749C74.9352 5.15175 69.7149 0.00902233 62.8146 0.00451117ZM71.7128 32.1646C71.7128 42.3576 71.7173 52.5506 71.7105 62.7436C71.7083 67.3359 68.9053 70.8163 64.5712 71.608C63.8993 71.7298 63.2295 71.7321 62.6387 71.7321C52.4416 71.7343 42.2401 71.7366 32.0407 71.7366C25.472 71.7366 18.9054 71.7366 12.3366 71.7366C7.7049 71.7366 4.19388 68.9306 3.39561 64.5886C3.27159 63.9187 3.27159 63.2466 3.27159 62.6533C3.26708 52.4829 3.26708 42.3125 3.26708 32.1443V23.7964H71.6293L71.6722 24.6874C71.6767 24.7866 71.6835 24.8813 71.688 24.9738C71.7015 25.1836 71.7128 25.3821 71.7128 25.5941V32.1669V32.1646ZM71.706 17.6116V19.1612C71.706 19.3484 71.6677 19.5018 71.6406 19.6146C71.6339 19.6439 71.6248 19.6732 71.6181 19.707L71.4647 20.4536H3.26708V18.868C3.26708 18.3988 3.26708 17.9409 3.26708 17.483C3.26708 16.8785 3.26708 16.2763 3.26257 15.6718C3.2558 14.323 3.25129 12.929 3.28737 11.5508C3.4114 7.0081 7.04418 3.37661 11.5609 3.28639C13.9738 3.23902 16.4249 3.24578 18.7927 3.25481C19.7353 3.25706 20.6756 3.26157 21.6204 3.26157H27.2241C39.0538 3.26157 50.8834 3.25932 62.7131 3.26157C66.9435 3.26157 70.2606 5.64573 71.3678 9.48022C71.5234 10.017 71.6677 10.599 71.6767 11.2148C71.7038 13.3485 71.7038 15.5139 71.706 17.6093V17.6116Z" fill="#4B8125"/>
<path d="M12.7956 35.4645C12.7934 43.6793 12.7934 51.8964 12.7956 60.1112C12.7956 61.5954 13.3955 62.1999 14.8635 62.1999C22.2598 62.2044 29.6562 62.2022 37.0526 62.1999C38.5499 62.1999 39.1091 61.636 39.1091 60.1203C39.1114 57.197 39.1091 54.276 39.1091 51.3528V47.7123V44.0763C39.1091 41.1801 39.1091 38.2862 39.1091 35.39C39.1091 33.854 38.5927 33.3375 37.0661 33.3352C33.3679 33.3352 29.6697 33.3352 25.9715 33.3352C22.2734 33.3352 18.5752 33.3352 14.877 33.3352C13.321 33.3352 12.7956 33.872 12.7956 35.4622V35.4645ZM16.1511 36.6261H35.8078V58.8707H16.1511V36.6261Z" fill="#4B8125"/>
<path d="M60.4908 56.3625C56.2694 56.3648 52.0503 56.3671 47.829 56.3625H47.8245C47.1818 56.3625 46.6338 56.5565 46.2843 56.9107C46.0047 57.1926 45.8581 57.5738 45.8604 58.0114C45.8671 58.9926 46.6248 59.6286 47.7861 59.6286C49.8968 59.6286 52.0075 59.6286 54.1159 59.6286H55.6132C57.2526 59.6286 58.8897 59.6309 60.5291 59.6286C61.1334 59.6286 61.6476 59.4459 61.9768 59.1144C62.2564 58.8324 62.403 58.4399 62.4007 57.9821C62.394 56.9828 61.6633 56.3648 60.493 56.3648H60.4908V56.3625Z" fill="#4B8125"/>
<path d="M60.6184 46.1177H52.5139C50.9107 46.1177 49.3051 46.1222 47.7018 46.1177H47.695C46.6217 46.1177 45.8662 46.7786 45.8595 47.7282C45.855 48.168 46.0106 48.5582 46.306 48.856C46.6374 49.192 47.1178 49.3747 47.6612 49.377C52.9041 49.3838 56.9112 49.3838 60.6545 49.377C61.1821 49.377 61.6467 49.1988 61.9601 48.8785C62.2555 48.5763 62.4088 48.168 62.3998 47.6988C62.384 46.7537 61.667 46.1199 60.6161 46.1199L60.6184 46.1177Z" fill="#4B8125"/>
<path d="M47.8912 35.8841C46.8471 35.8864 46.1368 36.527 46.1233 37.4766C46.1165 37.9232 46.2653 38.3112 46.5495 38.6021C46.8719 38.9292 47.3545 39.1119 47.9115 39.1164C49.3434 39.1254 50.7776 39.1232 52.2095 39.1209C52.8274 39.1209 53.4475 39.1209 54.0653 39.1209H54.1014C54.7283 39.1209 55.3575 39.1209 55.9843 39.1209C57.4298 39.1209 58.9226 39.1254 60.3906 39.1164C61.4279 39.1096 62.163 38.4533 62.1811 37.5172C62.1901 37.0909 62.0412 36.7097 61.7526 36.4165C61.4189 36.0759 60.9318 35.8887 60.3793 35.8864C56.1512 35.8774 51.9502 35.8774 47.8934 35.8864L47.8912 35.8841Z" fill="#4B8125"/>
<path d="M12.5781 11.8894C12.5804 12.866 13.2952 13.4999 14.3956 13.5021C15.5277 13.5044 16.6597 13.5021 17.7917 13.5021L19.2867 13.4976H20.7795C21.9115 13.4999 23.0435 13.5021 24.1733 13.4976C25.3346 13.4908 26.081 12.8525 26.0765 11.8736C26.072 10.8924 25.3166 10.2563 24.153 10.2541C21.7402 10.2496 19.3251 10.2473 16.9122 10.2473C16.0643 10.2473 15.2165 10.2473 14.3708 10.2473C13.8206 10.2473 13.3403 10.4255 13.0201 10.7481C12.7315 11.039 12.5781 11.4338 12.5804 11.8894H12.5781Z" fill="#4B8125"/>
<path d="M61.7055 13.0035C62.0122 12.6968 62.179 12.2953 62.179 11.869C62.179 11.4427 62.0032 11.0366 61.6852 10.7231C61.3672 10.4073 60.9568 10.2337 60.5261 10.2404C60.0954 10.2449 59.685 10.4231 59.3738 10.7434C59.0626 11.0615 58.8958 11.472 58.9025 11.8983C58.9161 12.7577 59.6602 13.4885 60.5261 13.4907H60.5306C60.9749 13.4907 61.3921 13.3193 61.7055 13.0058V13.0035Z" fill="#4B8125"/>
<path d="M50.5108 10.2449C49.6291 10.2719 48.9075 11.005 48.9053 11.8757C48.9053 12.3042 49.0744 12.7125 49.3833 13.0215C49.6968 13.335 50.1094 13.5087 50.5492 13.5087H50.5514C50.9821 13.5087 51.3858 13.3373 51.6879 13.0305C51.9969 12.717 52.1637 12.2997 52.157 11.8576C52.1502 11.4133 51.9676 10.996 51.6451 10.687C51.3452 10.4005 50.9618 10.2449 50.5604 10.2449C50.5447 10.2449 50.5289 10.2449 50.5131 10.2449H50.5108Z" fill="#4B8125"/>
</svg>

<svg width="75" height="75" viewBox="0 0 75 75" fill="none" xmlns="http://www.w3.org/2000/svg"><path d="M62.815.005A55442.265 55442.265 0 0012.18.009c-.58 0-1.448.018-2.264.17C3.903 1.291.015 6.012.009 12.204c-.01 13.854-.02 32.124.02 50.568.002 1.292.178 2.585.507 3.735 1.47 5.143 6.003 8.472 11.546 8.483 5.935.012 11.97.01 17.805.007l7.595-.002h7.532c5.928.002 11.856.004 17.783 0 6.909-.01 12.138-5.147 12.16-11.95.057-16.96.057-34.143 0-51.071C74.936 5.152 69.716.009 62.816.005zm8.898 32.16c0 10.193.004 20.386-.002 30.579-.003 4.592-2.806 8.072-7.14 8.864-.672.122-1.341.124-1.932.124-10.197.002-20.399.005-30.598.005H12.337c-4.632 0-8.143-2.806-8.941-7.148-.124-.67-.124-1.342-.124-1.936-.005-10.17-.005-20.34-.005-30.509v-8.348H71.63l.043.891.016.287c.013.21.025.408.025.62v6.573-.002zm-.007-14.553v1.55c0 .186-.038.34-.065.453-.007.029-.016.058-.023.092l-.153.747H3.267v-2.971c0-.605 0-1.207-.004-1.811-.007-1.349-.012-2.743.024-4.121.124-4.543 3.757-8.174 8.274-8.265 2.413-.047 4.864-.04 7.232-.031.942.002 1.883.007 2.827.007h5.604c11.83 0 23.66-.003 35.49 0 4.23 0 7.547 2.384 8.654 6.218.155.537.3 1.119.309 1.735.027 2.133.027 4.299.029 6.394v.003z" fill="#4B8125"/><path d="M12.796 35.465c-.003 8.214-.003 16.431 0 24.646 0 1.484.6 2.089 2.068 2.089 7.396.004 14.792.002 22.189 0 1.497 0 2.056-.564 2.056-2.08.002-2.923 0-5.844 0-8.767V35.39c0-1.536-.516-2.053-2.043-2.055H14.877c-1.556 0-2.081.537-2.081 2.127v.002zm3.355 1.161h19.657v22.245H16.15V36.626zM60.49 56.362c-4.22.003-8.44.005-12.661 0h-.005c-.642 0-1.19.194-1.54.549-.28.282-.426.663-.424 1.1.007.982.765 1.618 1.926 1.618h7.827c1.64 0 3.277.002 4.916 0 .604 0 1.119-.183 1.448-.515.28-.282.426-.674.424-1.132-.007-1-.738-1.617-1.908-1.617h-.002v-.003zm.128-10.244h-8.104c-1.603 0-3.209.004-4.812 0h-.007c-1.073 0-1.829.66-1.836 1.61-.004.44.152.83.447 1.128.331.336.812.519 1.355.521 5.243.007 9.25.007 12.993 0 .528 0 .993-.178 1.306-.498.295-.303.449-.711.44-1.18-.016-.945-.733-1.58-1.784-1.58l.002-.001zM47.891 35.884c-1.044.002-1.754.643-1.768 1.593-.006.446.142.834.427 1.125.322.327.805.51 1.361.514 1.432.01 2.867.007 4.298.005h3.775c1.446 0 2.939.004 4.407-.005 1.037-.006 1.772-.663 1.79-1.599a1.49 1.49 0 00-.428-1.1c-.334-.341-.821-.528-1.374-.53-4.228-.01-8.429-.01-12.486 0l-.002-.003zM12.578 11.89c.002.976.717 1.61 1.818 1.612 1.132.002 2.264 0 3.396 0l1.495-.004h1.492c1.133.002 2.265.004 3.394 0 1.162-.007 1.908-.646 1.904-1.624-.005-.982-.76-1.618-1.924-1.62-2.413-.004-4.828-.007-7.24-.007H14.37c-.55 0-1.03.178-1.35.501-.29.291-.443.686-.44 1.141h-.003zm49.128 1.114c.306-.307.473-.709.473-1.135 0-.426-.176-.832-.494-1.146a1.605 1.605 0 00-1.159-.483 1.63 1.63 0 00-1.152.503 1.61 1.61 0 00-.471 1.155c.013.86.757 1.59 1.623 1.593h.005c.444 0 .861-.172 1.175-.485v-.002zM50.51 10.245c-.88.027-1.602.76-1.605 1.63 0 .43.17.838.478 1.146.314.314.726.488 1.166.488h.002c.431 0 .835-.172 1.137-.479a1.649 1.649 0 00-.043-2.344 1.563 1.563 0 00-1.085-.441h-.049z" fill="#4B8125"/></svg>
